X: 17986
T: Hughie Jim Paul's
R: reel
M: 4/4
K: Amajor
|:AF|EAAc BAFA|EAcA d2cd|eaag aecA|dfec B2AF|
EAAc BAFA|EAcA d2cd|eaag aece|fdec A2:|
|:ab|c'bag fecB|Ae^df e2fg|aeee fedc|dfec B2ab|
c'bag fecB|Ae^df e2=dc|daag aeca|fdec A2:|

